shader_type canvas_item;

//uniform smapler2d TEXTURE;
uniform float opacity;

void vertex() {
	// Called for every vertex the material is visible on.
	
}

void fragment() {
	// Called for every pixel the material is visible on.
	vec4 colour = texture(TEXTURE, UV) * opacity;
	
	COLOR = colour;
}

//void light() {
	// Called for every pixel for every light affecting the CanvasItem.
	// Uncomment to replace the default light processing function with this one.
//}
